svg/090-black.svg

<svg height="288pt" stroke-linejoin="round" viewBox="0 0 432 288" width="432pt" xmlns="http://www.w3.org/2000/svg"><g stroke-linejoin="round"><path d="m0 288h432v-288h-432z" fill="none"/><path d="m163.456274 63.283292c-9.426323 6.848627-17.565134 15.313494-24.038403 25.001428-6.473268 9.687934-11.179195 20.446581-13.8992 31.776225-2.720006 11.329644-3.411315 23.052115-2.041817 34.622929 1.369498 11.570815 4.778265 22.808009 10.067971 33.18964 5.289707 10.381632 12.377168 19.744438 20.933184 27.653536 8.556017 7.909099 18.446038 14.240112 29.210692 18.698977 10.764655 4.458864 22.234658 6.975461 33.877253 7.432899s23.274689-1.151477 34.355998-4.752013c11.081309-3.600537 21.437567-9.136073 30.587747-16.349495 9.150181-7.213422 16.950389-15.991291 23.038321-25.925894 6.087932-9.934604 10.36785-20.86971 12.640959-32.297406 2.27311-11.427696 2.503665-23.16827.680956-34.676397-1.822709-11.508128-5.670017-22.602831-11.363226-32.768786s-13.142786-19.243291-22.002716-26.810386c-8.859929-7.567094-18.990879-13.504946-29.922288-17.537756-10.93141-4.03281-22.491371-6.097157-34.142948-6.097157v98.645671z"/></g></svg>

<?xml version="1.0" encoding="utf-8" standalone="no"?>
<!DOCTYPE svg PUBLIC "-//W3C//DTD SVG 1.1//EN"
  "http://www.w3.org/Graphics/SVG/1.1/DTD/svg11.dtd">
<!-- Created with matplotlib (http://matplotlib.org/) -->
<svg height="288pt" version="1.1" viewBox="0 0 432 288" width="432pt" xmlns="http://www.w3.org/2000/svg" xmlns:xlink="http://www.w3.org/1999/xlink">
 <defs>
  <style type="text/css">
*{stroke-linecap:butt;stroke-linejoin:round;}
  </style>
 </defs>
 <g id="figure_1">
  <g id="patch_1">
   <path d="M 0 288 
L 432 288 
L 432 0 
L 0 0 
z
" style="fill:none;"/>
  </g>
  <g id="axes_1">
   <g id="patch_2">
    <path d="M 163.456274 63.283292 
C 154.029951 70.131919 145.89114 78.596786 139.417871 88.28472 
C 132.944603 97.972654 128.238676 108.731301 125.518671 120.060945 
C 122.798665 131.390589 122.107356 143.11306 123.476854 154.683874 
C 124.846352 166.254689 128.255119 177.491883 133.544825 187.873514 
C 138.834532 198.255146 145.921993 207.617952 154.478009 215.52705 
C 163.034026 223.436149 172.924047 229.767162 183.688701 234.226027 
C 194.453356 238.684891 205.923359 241.201488 217.565954 241.658926 
C 229.208549 242.116364 240.840643 240.507449 251.921952 236.906913 
C 263.003261 233.306376 273.359519 227.77084 282.509699 220.557418 
C 291.65988 213.343996 299.460088 204.566127 305.54802 194.631524 
C 311.635952 184.69692 315.91587 173.761814 318.188979 162.334118 
C 320.462089 150.906422 320.692644 139.165848 318.869935 127.657721 
C 317.047226 116.149593 313.199918 105.05489 307.506709 94.888935 
C 301.8135 84.72298 294.363923 75.645644 285.503993 68.078549 
C 276.644064 60.511455 266.513114 54.573603 255.581705 50.540793 
C 244.650295 46.507983 233.090334 44.443636 221.438757 44.443636 
L 221.438757 143.089307 
L 163.456274 63.283292 
z
"/>
   </g>
   <g id="patch_3">
    <path d="M 221.438743 44.443636 
C 211.087398 44.443638 200.800268 46.072961 190.955554 49.271704 
C 181.110841 52.470446 171.830687 57.198923 163.456274 63.283292 
L 166.355398 67.273592 
C 174.311091 61.493442 183.127237 57.001389 192.479714 53.962584 
C 201.832192 50.923778 211.604966 49.375921 221.438743 49.37592 
z
"/>
   </g>
   <g id="matplotlib.axis_1"/>
   <g id="matplotlib.axis_2"/>
  </g>
 </g>
</svg>
